plasma/desktoptheme/Windows-modern-light/icons/cantata.svg

<?xml version="1.0" encoding="UTF-8" standalone="no"?>
<svg
   xmlns:dc="http://purl.org/dc/elements/1.1/"
   xmlns:cc="http://creativecommons.org/ns#"
   xmlns:rdf="http://www.w3.org/1999/02/22-rdf-syntax-ns#"
   xmlns:svg="http://www.w3.org/2000/svg"
   xmlns="http://www.w3.org/2000/svg"
   xmlns:sodipodi="http://sodipodi.sourceforge.net/DTD/sodipodi-0.dtd"
   xmlns:inkscape="http://www.inkscape.org/namespaces/inkscape"
   version="1.1"
   id="svg2"
   viewBox="0 0 32 32"
   inkscape:version="0.92.4 5da689c313, 2019-01-14"
   sodipodi:docname="cantata.svgz"
   width="32"
   height="32">
  <sodipodi:namedview
     pagecolor="#c8c8c8"
     bordercolor="#666666"
     borderopacity="1"
     objecttolerance="10"
     gridtolerance="10"
     guidetolerance="10"
     inkscape:pageopacity="0"
     inkscape:pageshadow="2"
     inkscape:window-width="1769"
     inkscape:window-height="961"
     id="namedview14"
     showgrid="false"
     inkscape:zoom="10.429825"
     inkscape:cx="5.105056"
     inkscape:cy="22.216162"
     inkscape:window-x="0"
     inkscape:window-y="36"
     inkscape:window-maximized="0"
     inkscape:current-layer="svg2" />
  <metadata
     id="metadata20">
    <rdf:RDF>
      <cc:Work
         rdf:about="">
        <dc:format>image/svg+xml</dc:format>
        <dc:type
           rdf:resource="http://purl.org/dc/dcmitype/StillImage" />
        <dc:title />
      </cc:Work>
    </rdf:RDF>
  </metadata>
  <defs
     id="defs3051">
    <style
       id="current-color-scheme"
       type="text/css">
      .ColorScheme-Text {
        color:#31363b;
      }
      </style>
  </defs>
  <g
     id="22-22-cantata"
     transform="translate(-25.627119)">
    <path
       id="path7"
       class="ColorScheme-Text"
       d="m 11,12.999863 a 7.9998002,8 0 0 0 -8,8 7.9998002,8 0 0 0 8,8 7.9998002,8 0 0 0 8,-8 7.9998002,8 0 0 0 -8,-8 z m 0,1 a 7,7 0 0 1 7,7 7,7 0 0 1 -7,7 7,7 0 0 1 -7,-7 7,7 0 0 1 7,-7 z"
       style="color:#31363b;fill:#eaeaea;fill-opacity:1;stroke:none"
       inkscape:connector-curvature="0" />
    <path
       id="path9"
       class="ColorScheme-Text"
       d="m 10,12.999863 v 11.044922 c -0.83718,-0.3612 -1.8093231,-0.263585 -2.8457031,0.166016 -1.73476,0.7184 -2.7294463,2.293178 -2.2226563,3.517578 0.50678,1.2248 2.3253869,1.636768 4.0605469,0.917968 1.3687605,-0.5684 2.2070315,-2.045546 2.2070315,-2.935546 v -8.710938 c 0,0 3.201172,0.39961 3.201172,3.599609 0,2.4 -0.800832,3.201172 -2.800782,5.201172 1.99995,-1.2 3.59961,-2.801172 3.59961,-5.201172 0,-3.199999 -2.469183,-4.639084 -3.101563,-5.271484 -0.39999,-0.4 -0.898437,-1.927734 -0.898437,-1.927734 z"
       style="color:#31363b;fill:#eaeaea;fill-opacity:1;stroke:none"
       inkscape:connector-curvature="0" />
    <path
       id="path11"
       d="M 0,10 V 32 H 22 V 10 Z"
       style="opacity:1;fill:none"
       inkscape:connector-curvature="0" />
  </g>
  <g
     id="cantata"
     inkscape:label="#cantata"
     transform="translate(-22)">
    <path
       id="path13"
       class="ColorScheme-Text"
       d="M 38,3.9999997 A 12,12 0 0 0 26,16 12,12 0 0 0 38,28 12,12 0 0 0 50,16 12,12 0 0 0 38,3.9999997 Z m 0,1 A 11,11 0 0 1 49,16 11,11 0 0 1 38,27 11,11 0 0 1 27,16 11,11 0 0 1 38,4.9999997 Z"
       style="color:#31363b;fill:#eaeaea;fill-opacity:1;stroke:none"
       inkscape:connector-curvature="0" />
    <path
       id="path15"
       class="ColorScheme-Text"
       d="M 37.002213,3.9999999 V 20.993871 c -1.255763,-0.541606 -3.213967,-0.827849 -4.768528,-0.183681 -2.602125,1.077213 -3.764563,3.471449 -3.004382,5.307377 0.760165,1.836516 3.158478,2.4213 5.761203,1.343499 2.053128,-0.852293 3.045682,-3.113787 3.042522,-4.448302 L 38.002208,9.9978365 c 0,0 5.100556,0.5991185 5.100556,5.3973565 0,3.59867 -1.100655,4.599059 -4.100562,7.597957 C 42.002109,21.19381 44.301,18.993863 44.301,15.395193 44.301,10.596955 40.597247,8.4391233 39.648682,7.4908763 39.048701,6.891092 38.301035,4.6003359 38.301035,4.6003359 Z"
       style="color:#31363b;fill:#eaeaea;fill-opacity:1;stroke:none"
       inkscape:connector-curvature="0" />
    <path
       id="path18"
       d="M 22,0 V 32 H 54 V 0 Z"
       style="opacity:1;fill:none"
       inkscape:connector-curvature="0" />
  </g>
</svg>

<?xml version="1.0" encoding="UTF-8" standalone="no"?>
<svg
   id="svg21"
   viewBox="0 0 54 32"
   version="1.1"
   sodipodi:docname="cantata.svg"
   inkscape:version="1.2.1 (9c6d41e410, 2022-07-14)"
   xmlns:inkscape="http://www.inkscape.org/namespaces/inkscape"
   xmlns:sodipodi="http://sodipodi.sourceforge.net/DTD/sodipodi-0.dtd"
   xmlns="http://www.w3.org/2000/svg"
   xmlns:svg="http://www.w3.org/2000/svg"
   xmlns:rdf="http://www.w3.org/1999/02/22-rdf-syntax-ns#"
   xmlns:cc="http://creativecommons.org/ns#"
   xmlns:dc="http://purl.org/dc/elements/1.1/">
  <sodipodi:namedview
     id="namedview14"
     pagecolor="#ffffff"
     bordercolor="#999999"
     borderopacity="1"
     inkscape:showpageshadow="0"
     inkscape:pageopacity="0"
     inkscape:pagecheckerboard="0"
     inkscape:deskcolor="#d1d1d1"
     showgrid="false"
     inkscape:zoom="12.111111"
     inkscape:cx="17.752294"
     inkscape:cy="15.853211"
     inkscape:window-width="1920"
     inkscape:window-height="1002"
     inkscape:window-x="0"
     inkscape:window-y="0"
     inkscape:window-maximized="1"
     inkscape:current-layer="svg21" />
  <metadata
     id="metadata23">
    <rdf:RDF>
      <cc:Work
         rdf:about="">
        <dc:format>image/svg+xml</dc:format>
        <dc:type
           rdf:resource="http://purl.org/dc/dcmitype/StillImage" />
        <dc:title />
      </cc:Work>
    </rdf:RDF>
  </metadata>
  <defs
     id="defs5">
    <style
       type="text/css"
       id="current-color-scheme"> .ColorScheme-Text { color:#363636; } </style>
  </defs>
  <g
     fill="currentColor"
     class="ColorScheme-Text"
     id="cantata">
    <path
       id="path7"
       opacity=".5"
       d="m38 4a12 12 0 0 0-12 12 12 12 0 0 0 12 12 12 12 0 0 0 12-12 12 12 0 0 0-12-12zm-0.01953 2a10 10 0 0 1 0.01953 0 10 10 0 0 1 10 10 10 10 0 0 1-10 10 10 10 0 0 1-10-10 10 10 0 0 1 9.9805-10z"
       style="fill:#000000;fill-opacity:1" />
    <path
       id="path9"
       fill="none"
       d="m22 0v32h32v-32z" />
    <path
       id="path11"
       d="m37.002 4v16.994c-1.2558-0.54161-3.214-0.82785-4.7685-0.18368-2.6021 1.0772-3.7646 3.4714-3.0044 5.3074 0.76016 1.8365 3.1585 2.4213 5.7612 1.3435 2.0531-0.85229 3.0457-3.1138 3.0425-4.4483l-0.03082-13.015s5.1006 0.59912 5.1006 5.3974c0 3.5987-1.1007 4.5991-4.1006 7.598 2.9999-1.7993 5.2988-3.9993 5.2988-7.598 0-4.7982-3.7038-6.9561-4.6523-7.9043-0.59998-0.59978-1.3476-2.8905-1.3476-2.8905z"
       class="ColorScheme-Text"
       style="fill:#000000;fill-opacity:1" />
  </g>
  <g
     fill="currentColor"
     class="ColorScheme-Text"
     id="22-22-cantata">
    <path
       id="path14"
       opacity=".5"
       d="m11 13a8 8 0 0 0-8 8 8 8 0 0 0 8 8 8 8 0 0 0 8-8 8 8 0 0 0-8-8zm0 2a6 6 0 0 1 6 6 6 6 0 0 1-6 6 6 6 0 0 1-6-6 6 6 0 0 1 6-6z"
       style="fill:#000000;fill-opacity:1" />
    <path
       id="path16"
       fill="none"
       d="m0 10v22h22v-22z" />
    <path
       id="path18"
       d="m10 13v11.045c-0.83718-0.3612-1.8093-0.26358-2.8457 0.16602-1.7348 0.7184-2.7294 2.2932-2.2227 3.5176 0.50678 1.2248 2.3254 1.6368 4.0605 0.91797 1.3688-0.5684 2.207-2.0455 2.207-2.9355v-8.7109s3.2012 0.39961 3.2012 3.5996c0 2.4-0.80083 3.2012-2.8008 5.2012 2-1.2 3.5996-2.8012 3.5996-5.2012 0-3.2-2.4692-4.6391-3.1016-5.2715-0.39999-0.4-0.89844-1.9277-0.89844-1.9277z"
       class="ColorScheme-Text"
       style="fill:#000000;fill-opacity:1" />
  </g>
</svg>
